!!!OTL: Glueck der Voegelein.
!!!OTL-incipit:VOEGLEIN IM HAIN
!!!COM: F. A. Anacker
!!!ARE: Europa, Mitteleuropa, Deutschland
!!!SCT: F0305
!!!TXL: @@DE
!!!YEM: Copyright 1995, estate of Helmut Schaffrath.
**kern	**text	**text	**text	**text	**text	**text
*ICvox	*	*	*	*	*	*
*clefG2	*	*	*	*	*	*
*M3/8	*	*	*	*	*	*
*k[f#]	*	*	*	*	*	*
*G:	*	*	*	*	*	*
=1	=1	=1	=1	=1	=1	=1
!LO:TX:a:t=In angemeſſener Bewegung.	!	!	!	!	!	!
{8d	1._Vöglein	2._Fiſchlein	3._Würmlein	4. Menſch	5._Thörigt	6._Pil-
8g	.	.	.	mit	.	-ger
8a	im	im	ſo	Verſtand!	und	der
=2	=2	=2	=2	=2	=2	=2
4.b/}	Hain!	Bach!	ʒart!	.	blind!	Ʒeit!
=3	=3	=3	=3	=3	=3	=3
{8g	Vöglein	Fiſchlein	Würmlein	Menſch	Thörigt	Pil-
8b/	.	.	.	mit	.	-ger
8cc	im	im	ſo	Ver-	und	der
=4	=4	=4	=4	=4	=4	=4
4.dd}	Hain	Bach	ʒart	-ſtand	blind	Ʒeit!
=5	=5	=5	=5	=5	=5	=5
{8ee	flat-	rau-	kriecht	ſoll-	giert	Vög-
8a	-tert	-ſchet	un-	-te	er	-lein
8b/	mit	ʒwar	-ter'm	wohl	nach	ſtets
=6	=6	=6	=6	=6	=6	=6
16ddqq	.	.	.	.	.	.
16ccL	fro-	wohl-	Blätter-	klü-	Kron'	wohl-
16bJ	.	.	.	.	.	.
16ccL	-hem	-ge-	.	-ger	und	-ge-
16ddJ	.	.	.	.	.	.
8cc}	Sinn	-muth	-moos,	ſein,	Thron,	-muth,
=7	=7	=7	=7	=7	=7	=7
{8dd	nach	hin	wühlt	fro-	ha-	nim-
8g	al-	durch	ſich	-her	-ſchet	-mer
8a	-len	die	im	als	nach	ſein
=8	=8	=8	=8	=8	=8	=8
16ccqq	.	.	.	.	.	.
16b\L	1._Sei-	2._Sil.	3._Er-	4._Vö-	5._Er-	6._Lied-
16aJ	.	.	.	.	.	.
16bL	-ten	-ber-	-denſchoos,	-ge-	-den-	-lein
16ccJ	.	.	.	.	.	.
8b}	hin,	-fluth;	.	-lein;	-lohn,	ruht,
=9	=9	=9	=9	=9	=9	=9
{8dd	wiegt	a-	ſchleppt	a-	baut	flat-
8cc	ſich	-ber	ach!	-ber	ſich	-tert
8b	auf	er	wohl	er	auf	mit
=10	=10	=10	=10	=10	=10	=10
8a	Ʒweig	hält	immer-	ker-	Sand	fro-
8f#	und	der	.	-kert	ſein	-hem
8d}	Rohr,	Strand	-dar	ſich,	Haus,	Sinn
=11	=11	=11	=11	=11	=11	=11
{8dd	fliegt	Fiſchlein	mit	feſ-	weint	nach
8cc	bis	.	ſich	-ſelt	wol	al-
8b	ʒur	im	ſein	und	das	-len
=12	=12	=12	=12	=12	=12	=12
8a	Sonn'	Bach	Häuschen	ängſtet	Aug'	Sei-
8f#	empor.	gebannt.	.	.	ſich	-ten
8d}	.	.	gar.	ſich;	aus.	hin.
=13	=13	=13	=13	=13	=13	=13
!LO:TX:a:t=2 Stimme ad lib.	!	!	!	!	!	!
!LO:TX:a:t=P:accompaniment ommitted:problem	!	!	!	!	!	!
{8cc	Glück-	Glück-	Glück-	weiß	Glück-	Glück-
8cc	-lich	-lich	-lich	nicht	-lich	-lich
8cc	und	und	und	wie	und	und
=14	=14	=14	=14	=14	=14	=14
8.ee/	1._froh	2._froh	3._froh	4._Vö-	5._froh	6._froh
16dd/	ʒu	ʒu	ʒu	-ge-	ʒu	ʒu
8cc/}	ſein	ſein	ſein	-lein	ſein	ſein
=15	=15	=15	=15	=15	=15	=15
{8dd/	weiß	weiß	weiß	glück-	weiß	lernt
8a	nur	nur	nur	-lich	nur	von
8b/	das	das	das	und	das	dem
=16	=16	=16	=16	=16	=16	=16
32ccqqL	.	.	.	.	.	.
32ddqqJ	.	.	.	.	.	.
16cc/L	Vö-	Vö-	Vö-	froh	Vö-	Vö-
16bJ	.	.	.	.	.	.
16cc/L	-ge-	-ge-	-ge-	ʒu	-ge-	-ge-
16ddJ	.	.	.	.	.	.
8cc/}	-lein.	-lein.	-lein.	ſein	-lein.	-lein.
=17	=17	=17	=17	=17	=17	=17
!LO:TX:a:t=P:Accompaniment ommitted:problem	!	!	!	!	!	!
{8ee/	Vöglein	Vöglein	.	.	.	.
8cc/	.	.	.	.	.	.
8a	im	im	.	.	.	.
=18	=18	=18	=18	=18	=18	=18
4.f#X}	Hain,	Hain,	.	.	.	.
=19	=19	=19	=19	=19	=19	=19
!LO:TX:a:t=Eine Stimme.	!	!	!	!	!	!
{8d	Vöglein	Vöglein	.	.	.	.
8g	.	.	.	.	.	.
8a	im	im	.	.	.	.
=20	=20	=20	=20	=20	=20	=20
4.b/}	Hain,	.	.	.	.	.
=21	=21	=21	=21	=21	=21	=21
{8g	Vöglein	.	.	.	.	.
8b/	.	.	.	.	.	.
8cc	im	.	.	.	.	.
=22	=22	=22	=22	=22	=22	=22
4.dd/}	Hain,	.	.	.	.	.
=23	=23	=23	=23	=23	=23	=23
!LO:TX:a:t=P:duration shortened:problem	!	!	!	!	!	!
{[>4.dd/	Vög-	.	.	.	.	.
=24	=24	=24	=24	=24	=24	=24
8dd/]	.	.	.	.	.	.
8d	-lein	.	.	.	.	.
8b/	im	.	.	.	.	.
=25	=25	=25	=25	=25	=25	=25
4.g;}	Hain.	.	.	.	.	.
==	==	==	==	==	==	==
!!!AGN: Jugend - Lied, Belehrung
!!!ONB: ESAC (Essen Associative Code) Database: FINK
!!!AMT: simple triple
!!!AIN: vox
!!!EED: Helmut Schaffrath
!!!EEV: 1.0
!!!RDF**kern: > = above
!!!GTL: Jugendlieder
!!!source: Musikalischer Hausschatz der Deutschen. Eine Sammlung von über 1000 Liedern und Gesängen mit Singstimmen und Klavierbegleitung. Leipzig, Litterarisches Verlags-Haus.
!!!page: 182
!!!URL-scan: https://www.digitale-sammlungen.de/en/view/bsb11144622?page=180,181
!!!ENC: Anna Maria Matuszewska
!!!EEV: 2024/07/30
*-	*-	*-	*-	*-	*-	*-
